svgs/regular/route-highway.svg

<svg xmlns="http://www.w3.org/2000/svg" viewBox="0 0 448 512"><!-- Font Awesome Pro 6.0.0-alpha2 by @fontawesome - https://fontawesome.com License - https://fontawesome.com/license (Commercial License) --><path d="M428.355 269.25C397.859 223.75 416.607 164.75 441.355 113.75C445.355 105.625 444.73 96 439.48 88.625L398.359 30.375C393.734 23.875 386.484 20.125 379.111 20.125C376.361 20.125 373.486 20.625 370.861 21.75C355.488 27.625 338.24 30.625 320.617 30.625C291.119 30.625 260.746 22.125 237.499 4.5C233.499 1.5 228.749 0 223.999 0S214.501 1.5 210.501 4.5C187.253 22.125 156.88 30.625 127.384 30.625C109.761 30.625 92.513 27.625 77.138 21.75C74.513 20.75 71.765 20.25 68.89 20.25C61.515 20.25 54.265 23.875 49.642 30.375L8.521 88.75C3.271 96.125 2.646 105.625 6.646 113.875C31.394 164.75 50.142 223.75 19.644 269.25C-18.352 325.75 1.021 408.625 58.39 435.25L223.999 512L389.609 435.25C446.98 408.625 466.353 325.75 428.355 269.25ZM397.216 355.609C392.492 372.541 382.353 385.699 369.425 391.699L223.999 459.096L78.597 391.711C65.646 385.699 55.509 372.541 50.785 355.609C45.023 334.965 48.273 312.695 59.517 295.975C81.988 262.451 85.871 225.564 81.91 192H366.123C362.167 225.6 366.054 262.514 388.525 296.037C399.728 312.695 402.976 334.965 397.216 355.609Z"/></svg>

<svg xmlns="http://www.w3.org/2000/svg" viewBox="0 0 448 512"><!-- Font Awesome Pro 5.15.1 by @fontawesome - https://fontawesome.com License - https://fontawesome.com/license (Commercial License) --><path d="M428.4 269.21c-30.48-45.42-11.8-104.47 13-155.4 3.96-8.13 3.34-17.75-1.87-25.13l-41.17-58.36c-4.56-6.47-11.8-10.14-19.28-10.14-2.74 0-5.52.49-8.21 1.52-15.37 5.88-32.67 8.89-50.26 8.89-29.51 0-59.81-8.47-83.16-26.11C233.48 1.5 228.74 0 224 0s-9.48 1.5-13.44 4.49C187.21 22.13 156.9 30.6 127.39 30.6c-17.59 0-34.89-3.01-50.25-8.89a22.929 22.929 0 0 0-8.21-1.52c-7.48 0-14.72 3.67-19.28 10.13L8.47 88.69c-5.21 7.38-5.83 16.99-1.87 25.13 24.8 50.92 43.47 109.97 13 155.4-37.94 56.52-18.55 139.43 38.81 166.03L223.97 512l165.62-76.76c57.37-26.6 76.75-109.51 38.81-166.03zM78.65 72.48c15.57 4.03 32.12 6.12 48.75 6.12 34.98 0 68.63-8.94 96.61-25.45 27.98 16.5 61.62 25.45 96.61 25.45 16.63 0 33.18-2.09 48.75-6.12l23.01 32.62c-7.13 15.4-16.3 37.56-22.08 62.9H77.72c-5.79-25.33-14.95-47.49-22.08-62.9l23.01-32.62zM397.2 355.63c-4.73 16.92-14.87 30.07-27.79 36.06l-145.43 67.4-145.38-67.4c-12.93-6-23.06-19.14-27.8-36.06-5.78-20.67-2.55-42.98 8.66-59.67 17.23-25.68 23.58-53.33 23.83-79.96h281.42c.26 26.62 6.6 54.29 23.83 79.97 11.21 16.68 14.44 38.98 8.66 59.66z"/></svg>
